X: 38
T: Qing liuliu de Qingdiao
L: 1/8
M: 3/4
K: F
A2A c d/ f/ c [I:setbarnb 1]| 
A cd2c A | 
c Ad2d/ f/ c | 
c A A Dz2 | 
c2d2d g | 
d2c A c A | 
G2G F G F | 
G6 | 
A c G F D C | 
D6 |]

@@@ Tune index: 8706
